!!!OTL: Old King Coul
!!!ONM: 91.
**kern
*clefG2
*k[b-]
*F:
*M4/4
*MM80
{4f
4f
4c
8c
8c
=2
8d
8d
4d
4c}
{8c
8c
=3
8f
8f
4f
4g
4e
=4
4.f
8r
4r}
{4f
=5
4a
8a
8a
4f
8f
8f
=6
4a
8a
8a
4f}
{8a
8a
=7
4cc
8cc
8cc
4b-
4g
=8
4.f
8r
2r}
=9||
{4.cc
8cc
4.cc
8cc
=10
4cc
8a
8g
4f
8f}
{8f
=11
4cc
4cc
4cc
4dd
=12
4.cc
8r
2r}
==
*-
!!!CNT: Folksongs of Maritime Canada
!!!MRD: 1928///-1932///
!!!OCL: Helen Creighton
!!!YOR: Songs and Ballads from Nova Scotia
!!!PPR: J.M. Dent & Sons, Limited
!!!PPP: Toronto, Canada
!!!PDT: 1932///
!!!reprint: Dover Publications, 1992: ISBN 0-486-21703-5
!!!ENC1: Craig Stuart Sapp (music and bibliographic data)                       
!!!ENC2: Marcus Pearce (phrase markings and key designations)                   
!!!ENC3: Darrell Conklin (phrase markings and key designations)   
!!!END: 2002/04/10/
!!!EEV: 2004/06/05
!!!MPN: Mr. Richard Hartlan
!!!PPG: 197
!!!EFL: 92/152
!!!ARE: Canada; Nova Scotia
!!!verses: 6
!!!VTS: 3002272508
